X:596
T:Bladon Races
O:england
M:4/4
L:1/8
Q:120
K:G
D | GG GG | GG GG | AA AA | B2 G2 | cc cc |BB BB | AB AG | F2 D2 |GG GG
| GG GG
| AA AA | B2 GB | cc cc | Bcd2 | dc BA | G2 G2 :|
dd dB | GG GG | AA AA | BB GB | cc cc | BB BB | AB AG | F2 D2 | GG GG |
GG GG |
AA AA | B2 GB | cc cc | Bc d2 | dc BA | G2 G2 :|
